Numix-Circle/48x48/apps/bittorent.svg

<?xml version="1.0" encoding="UTF-8" standalone="no"?>
<svg
   xmlns:dc="http://purl.org/dc/elements/1.1/"
   xmlns:cc="http://creativecommons.org/ns#"
   xmlns:rdf="http://www.w3.org/1999/02/22-rdf-syntax-ns#"
   xmlns:svg="http://www.w3.org/2000/svg"
   xmlns="http://www.w3.org/2000/svg"
   xmlns:xlink="http://www.w3.org/1999/xlink"
   xmlns:sodipodi="http://sodipodi.sourceforge.net/DTD/sodipodi-0.dtd"
   xmlns:inkscape="http://www.inkscape.org/namespaces/inkscape"
   viewBox="0 0 48 48"
   id="svg2"
   version="1.1"
   inkscape:version="0.48.4 r9939"
   width="100%"
   height="100%"
   sodipodi:docname="bittorent.svg">
  <metadata
     id="metadata69">
    <rdf:RDF>
      <cc:Work
         rdf:about="">
        <dc:format>image/svg+xml</dc:format>
        <dc:type
           rdf:resource="http://purl.org/dc/dcmitype/StillImage" />
      </cc:Work>
    </rdf:RDF>
  </metadata>
  <sodipodi:namedview
     pagecolor="#ffffff"
     bordercolor="#666666"
     borderopacity="1"
     objecttolerance="10"
     gridtolerance="10"
     guidetolerance="10"
     inkscape:pageopacity="0"
     inkscape:pageshadow="2"
     inkscape:window-width="640"
     inkscape:window-height="480"
     id="namedview67"
     showgrid="false"
     inkscape:zoom="2.4583333"
     inkscape:cx="-41.912893"
     inkscape:cy="30.832284"
     inkscape:window-x="0"
     inkscape:window-y="0"
     inkscape:window-maximized="0"
     inkscape:current-layer="svg2" />
  <defs
     id="defs4">
    <linearGradient
       id="linearGradient3764"
       x1="1"
       x2="47"
       gradientUnits="userSpaceOnUse"
       gradientTransform="matrix(0,-1,1,0,-1.5e-6,47.999998)">
      <stop
         stop-color="#783193"
         stop-opacity="1"
         id="stop7" />
      <stop
         offset="1"
         stop-color="#8436a2"
         stop-opacity="1"
         id="stop9" />
    </linearGradient>
    <clipPath
       id="clipPath-075275238">
      <g
         transform="translate(0,-1004.3622)"
         id="g12">
        <path
           d="m -24 13 c 0 1.105 -0.672 2 -1.5 2 -0.828 0 -1.5 -0.895 -1.5 -2 0 -1.105 0.672 -2 1.5 -2 0.828 0 1.5 0.895 1.5 2 z"
           transform="matrix(15.333333,0,0,11.5,414.99999,878.8622)"
           fill="#1890d0"
           id="path14" />
      </g>
    </clipPath>
    <clipPath
       id="clipPath-087397848">
      <g
         transform="translate(0,-1004.3622)"
         id="g17">
        <path
           d="m -24 13 c 0 1.105 -0.672 2 -1.5 2 -0.828 0 -1.5 -0.895 -1.5 -2 0 -1.105 0.672 -2 1.5 -2 0.828 0 1.5 0.895 1.5 2 z"
           transform="matrix(15.333333,0,0,11.5,414.99999,878.8622)"
           fill="#1890d0"
           id="path19" />
      </g>
    </clipPath>
    <linearGradient
       inkscape:collect="always"
       xlink:href="#linearGradient3764"
       id="linearGradient3064"
       gradientUnits="userSpaceOnUse"
       gradientTransform="matrix(0,-1,1,0,-1.5e-6,47.999998)"
       x1="1"
       x2="47" />
    <linearGradient
       inkscape:collect="always"
       xlink:href="#linearGradient3764"
       id="linearGradient3068"
       gradientUnits="userSpaceOnUse"
       gradientTransform="matrix(0,-1,1,0,-1.5e-6,47.999998)"
       x1="1"
       x2="47" />
  </defs>
  <g
     id="g21">
    <path
       d="m 36.31 5 c 5.859 4.062 9.688 10.831 9.688 18.5 c 0 12.426 -10.07 22.5 -22.5 22.5 c -7.669 0 -14.438 -3.828 -18.5 -9.688 c 1.037 1.822 2.306 3.499 3.781 4.969 c 4.085 3.712 9.514 5.969 15.469 5.969 c 12.703 0 23 -10.298 23 -23 c 0 -5.954 -2.256 -11.384 -5.969 -15.469 c -1.469 -1.475 -3.147 -2.744 -4.969 -3.781 z m 4.969 3.781 c 3.854 4.113 6.219 9.637 6.219 15.719 c 0 12.703 -10.297 23 -23 23 c -6.081 0 -11.606 -2.364 -15.719 -6.219 c 4.16 4.144 9.883 6.719 16.219 6.719 c 12.703 0 23 -10.298 23 -23 c 0 -6.335 -2.575 -12.06 -6.719 -16.219 z"
       opacity="0.05"
       id="path23" />
    <path
       d="m 41.28 8.781 c 3.712 4.085 5.969 9.514 5.969 15.469 c 0 12.703 -10.297 23 -23 23 c -5.954 0 -11.384 -2.256 -15.469 -5.969 c 4.113 3.854 9.637 6.219 15.719 6.219 c 12.703 0 23 -10.298 23 -23 c 0 -6.081 -2.364 -11.606 -6.219 -15.719 z"
       opacity="0.1"
       id="path25" />
    <path
       d="m 31.25 2.375 c 8.615 3.154 14.75 11.417 14.75 21.13 c 0 12.426 -10.07 22.5 -22.5 22.5 c -9.708 0 -17.971 -6.135 -21.12 -14.75 a 23 23 0 0 0 44.875 -7 a 23 23 0 0 0 -16 -21.875 z"
       opacity="0.2"
       id="path27" />
  </g>
  <g
     id="g29">
    <path
       d="m 24 1 c 12.703 0 23 10.297 23 23 c 0 12.703 -10.297 23 -23 23 -12.703 0 -23 -10.297 -23 -23 0 -12.703 10.297 -23 23 -23 z"
       id="path31"
       fill-opacity="1"
       fill="url(#linearGradient3764)" />
  </g>
  <g
     id="g33" />
  <g
     id="g35">
    <g
       clip-path="url(#clipPath-075275238)"
       id="g37">
      <g
         transform="translate(1,1)"
         id="g39">
        <g
           opacity="0.1"
           id="g41">
          <!-- color: #8436a2 -->
          <g
             id="g43">
            <path
               d="m 26.313 13.03 c -0.359 -0.004 -0.734 0.008 -1.094 0.031 c -0.961 0.066 -1.922 0.211 -2.875 0.469 c -3.746 1.01 -6.824 3.375 -8.688 6.625 c -3.914 6.832 -1.84 15.188 4.938 19.844 c 5.406 3 16.03 5 29.406 3 c 0 -1 0 -1 0 -2 c -18.348 0.41 -22.13 0.047 -27.531 -3.656 c -5.352 -3.672 -7.05 -10.234 -4 -15.563 c 1.434 -2.492 3.848 -4.316 6.75 -5.094 c 2.977 -0.805 6.04 -0.383 8.656 1.125 l 1.625 -2.816 c -2.215 -1.273 -4.676 -1.949 -7.188 -1.969 m 0 0"
               fill="#000"
               stroke="none"
               fill-rule="nonzero"
               fill-opacity="1"
               id="path45" />
            <path
               d="m 26 17.438 c -1.648 0.055 -3.313 0.5 -4.781 1.344 c -3.25 1.875 -5.03 5.273 -5.03 8.781 c 0 1.625 0.367 3.293 1.191 4.813 c 0 0.004 0.051 0.074 0.063 0.094 c 0 0 -0.016 0.039 0 0.063 c 0.023 0.039 0.09 0.09 0.094 0.102 c 0.516 0.875 2.504 3.863 6.816 5.438 c 7.242 1.938 19.12 1.453 23.656 0.938 c 0 -0.703 0 -1 0 -2 c -5.969 0.012 -17.48 0.484 -22.598 -2 c -3.395 -1.234 -4.801 -3.504 -5.063 -3.969 c -0.621 -1.082 -0.906 -2.305 -0.906 -3.469 c 0 -2.379 1.23 -4.691 3.441 -5.969 c 1.594 -0.914 3.438 -1.164 5.219 -0.691 c 1.77 0.48 3.266 1.629 4.188 3.223 l 2.906 -1.5 l -0.094 -0.098 c -1.355 -2.344 -3.508 -4.04 -6.125 -4.75 c -0.98 -0.262 -1.98 -0.375 -2.969 -0.344 m 0 0"
               fill="#000"
               stroke="none"
               fill-rule="nonzero"
               fill-opacity="1"
               id="path47" />
            <path
               d="m 10.539 26.504 c 0.461 14.13 10.461 20.496 37.461 18.496 l 0 3 l -21 0 c -10.457 -1.57 -20.691 -10.113 -19.637 -22.406 c 0.895 -11.512 12.07 -17.406 18.656 -16.793 l 0 3.254 c -0.371 -0.105 -14.156 0.602 -15.48 14.449 m 0 0"
               fill="#000"
               stroke="none"
               fill-rule="nonzero"
               fill-opacity="1"
               id="path49" />
          </g>
        </g>
      </g>
    </g>
  </g>
  <path
     style="fill:#f9f9f9;fill-opacity:1;fill-rule:nonzero;stroke:none"
     d="M 24.71875 8.75 C 18.061053 8.9345959 8.2140625 14.80125 7.375 25.59375 C 6.4646404 36.211445 13.98178 44.022798 22.78125 46.96875 C 22.791772 46.969298 22.801974 46.968216 22.8125 46.96875 C 23.204529 46.988621 23.603031 47 24 47 C 27.21019 47 30.25572 46.344092 33.03125 45.15625 C 17.195309 43.950516 10.894244 37.626028 10.53125 26.5 C 11.85525 12.653 25.66025 11.9575 26.03125 12.0625 L 26.03125 8.8125 C 25.619625 8.7741875 25.162596 8.7376936 24.71875 8.75 z M 26.3125 13.03125 C 25.9535 13.02725 25.57875 13.0395 25.21875 13.0625 C 24.25775 13.1285 23.29675 13.27325 22.34375 13.53125 C 18.59775 14.54125 15.52025 16.90625 13.65625 20.15625 C 9.74225 26.98825 11.81575 35.344 18.59375 40 C 22.214495 42.009292 28.188658 43.539212 35.75 43.75 C 37.036641 42.984034 38.235247 42.118993 39.34375 41.125 C 28.336986 41.154005 24.869565 40.361009 20.46875 37.34375 C 15.11675 33.67175 13.41875 27.11025 16.46875 21.78125 C 17.90275 19.28925 20.31675 17.4655 23.21875 16.6875 C 26.19575 15.8825 29.259 16.3045 31.875 17.8125 L 33.5 15 C 31.285 13.727 28.8245 13.05125 26.3125 13.03125 z M 26 17.4375 C 24.352 17.4925 22.68675 17.93725 21.21875 18.78125 C 17.96875 20.65625 16.1875 24.0545 16.1875 27.5625 C 16.1875 29.1875 16.551 30.855 17.375 32.375 C 17.375 32.379 17.4255 32.44875 17.4375 32.46875 C 17.4375 32.46875 17.4215 32.50725 17.4375 32.53125 C 17.4605 32.57025 17.52725 32.613 17.53125 32.625 C 18.04725 33.5 20.03175 36.4875 24.34375 38.0625 C 29.06069 39.32478 35.721714 39.538724 41.0625 39.40625 C 41.741652 38.654614 42.361264 37.868006 42.9375 37.03125 C 36.890897 37.060461 29.31209 36.895683 25.40625 35 C 22.01125 33.766 20.60575 31.49625 20.34375 31.03125 C 19.72275 29.94925 19.4375 28.7265 19.4375 27.5625 C 19.4375 25.1835 20.664 22.87175 22.875 21.59375 C 24.469 20.67975 26.31275 20.43325 28.09375 20.90625 C 29.86375 21.38625 31.35925 22.531 32.28125 24.125 L 35.1875 22.625 L 35.09375 22.53125 C 33.73875 20.18725 31.58575 18.49125 28.96875 17.78125 C 27.98875 17.51925 26.989 17.4065 26 17.4375 z "
     id="path57" />
  <g
     id="g63">
    <path
       d="m 40.03 7.531 c 3.712 4.084 5.969 9.514 5.969 15.469 0 12.703 -10.297 23 -23 23 c -5.954 0 -11.384 -2.256 -15.469 -5.969 4.178 4.291 10.01 6.969 16.469 6.969 c 12.703 0 23 -10.298 23 -23 0 -6.462 -2.677 -12.291 -6.969 -16.469 z"
       opacity="0.1"
       id="path65" />
  </g>
</svg>

<svg xmlns="http://www.w3.org/2000/svg" viewBox="0 0 48 48"><defs><linearGradient id="linearGradient3764" x1="1" x2="47" gradientUnits="userSpaceOnUse" gradientTransform="matrix(0,-1,1,0,-1.5e-6,47.999998)"><stop stop-color="#783193" stop-opacity="1"/><stop offset="1" stop-color="#8436a2" stop-opacity="1"/></linearGradient><clipPath id="clipPath-075275238"><g transform="translate(0,-1004.3622)"><path d="m -24 13 c 0 1.105 -0.672 2 -1.5 2 -0.828 0 -1.5 -0.895 -1.5 -2 0 -1.105 0.672 -2 1.5 -2 0.828 0 1.5 0.895 1.5 2 z" transform="matrix(15.333333,0,0,11.5,414.99999,878.8622)" fill="#1890d0"/></g></clipPath><clipPath><g transform="translate(0,-1004.3622)"><path d="m -24 13 c 0 1.105 -0.672 2 -1.5 2 -0.828 0 -1.5 -0.895 -1.5 -2 0 -1.105 0.672 -2 1.5 -2 0.828 0 1.5 0.895 1.5 2 z" transform="matrix(15.333333,0,0,11.5,414.99999,878.8622)" fill="#1890d0"/></g></clipPath></defs><g><path d="m 36.31 5 c 5.859 4.062 9.688 10.831 9.688 18.5 c 0 12.426 -10.07 22.5 -22.5 22.5 c -7.669 0 -14.438 -3.828 -18.5 -9.688 c 1.037 1.822 2.306 3.499 3.781 4.969 c 4.085 3.712 9.514 5.969 15.469 5.969 c 12.703 0 23 -10.298 23 -23 c 0 -5.954 -2.256 -11.384 -5.969 -15.469 c -1.469 -1.475 -3.147 -2.744 -4.969 -3.781 z m 4.969 3.781 c 3.854 4.113 6.219 9.637 6.219 15.719 c 0 12.703 -10.297 23 -23 23 c -6.081 0 -11.606 -2.364 -15.719 -6.219 c 4.16 4.144 9.883 6.719 16.219 6.719 c 12.703 0 23 -10.298 23 -23 c 0 -6.335 -2.575 -12.06 -6.719 -16.219 z" opacity="0.05"/><path d="m 41.28 8.781 c 3.712 4.085 5.969 9.514 5.969 15.469 c 0 12.703 -10.297 23 -23 23 c -5.954 0 -11.384 -2.256 -15.469 -5.969 c 4.113 3.854 9.637 6.219 15.719 6.219 c 12.703 0 23 -10.298 23 -23 c 0 -6.081 -2.364 -11.606 -6.219 -15.719 z" opacity="0.1"/><path d="m 31.25 2.375 c 8.615 3.154 14.75 11.417 14.75 21.13 c 0 12.426 -10.07 22.5 -22.5 22.5 c -9.708 0 -17.971 -6.135 -21.12 -14.75 a 23 23 0 0 0 44.875 -7 a 23 23 0 0 0 -16 -21.875 z" opacity="0.2"/></g><g><path d="m 24 1 c 12.703 0 23 10.297 23 23 c 0 12.703 -10.297 23 -23 23 -12.703 0 -23 -10.297 -23 -23 0 -12.703 10.297 -23 23 -23 z" fill-opacity="1" fill="url(#linearGradient3764)"/></g><g><g clip-path="url(#clipPath-075275238)"><g transform="translate(1,1)"><g opacity="0.1"><!-- color: #8436a2 --><g><path d="m 26.313 13.03 c -0.359 -0.004 -0.734 0.008 -1.094 0.031 c -0.961 0.066 -1.922 0.211 -2.875 0.469 c -3.746 1.01 -6.824 3.375 -8.688 6.625 c -3.914 6.832 -1.84 15.188 4.938 19.844 c 5.406 3 16.03 5 29.406 3 c 0 -1 0 -1 0 -2 c -18.348 0.41 -22.13 0.047 -27.531 -3.656 c -5.352 -3.672 -7.05 -10.234 -4 -15.563 c 1.434 -2.492 3.848 -4.316 6.75 -5.094 c 2.977 -0.805 6.04 -0.383 8.656 1.125 l 1.625 -2.816 c -2.215 -1.273 -4.676 -1.949 -7.188 -1.969 m 0 0" fill="#000" stroke="none" fill-rule="nonzero" fill-opacity="1"/><path d="m 26 17.438 c -1.648 0.055 -3.313 0.5 -4.781 1.344 c -3.25 1.875 -5.03 5.273 -5.03 8.781 c 0 1.625 0.367 3.293 1.191 4.813 c 0 0.004 0.051 0.074 0.063 0.094 c 0 0 -0.016 0.039 0 0.063 c 0.023 0.039 0.09 0.09 0.094 0.102 c 0.516 0.875 2.504 3.863 6.816 5.438 c 7.242 1.938 19.12 1.453 23.656 0.938 c 0 -0.703 0 -1 0 -2 c -5.969 0.012 -17.48 0.484 -22.598 -2 c -3.395 -1.234 -4.801 -3.504 -5.063 -3.969 c -0.621 -1.082 -0.906 -2.305 -0.906 -3.469 c 0 -2.379 1.23 -4.691 3.441 -5.969 c 1.594 -0.914 3.438 -1.164 5.219 -0.691 c 1.77 0.48 3.266 1.629 4.188 3.223 l 2.906 -1.5 l -0.094 -0.098 c -1.355 -2.344 -3.508 -4.04 -6.125 -4.75 c -0.98 -0.262 -1.98 -0.375 -2.969 -0.344 m 0 0" fill="#000" stroke="none" fill-rule="nonzero" fill-opacity="1"/><path d="m 10.539 26.504 c 0.461 14.13 10.461 20.496 37.461 18.496 l 0 3 l -21 0 c -10.457 -1.57 -20.691 -10.113 -19.637 -22.406 c 0.895 -11.512 12.07 -17.406 18.656 -16.793 l 0 3.254 c -0.371 -0.105 -14.156 0.602 -15.48 14.449 m 0 0" fill="#000" stroke="none" fill-rule="nonzero" fill-opacity="1"/></g></g></g></g></g><path d="m 24.719 8.75 c -6.658 0.185 -16.505 6.05 -17.344 16.844 c -0.91 10.618 6.607 18.429 15.406 21.375 c 0.011 0.001 0.021 -0.001 0.031 0 c 0.392 0.02 0.791 0.031 1.188 0.031 c 3.21 0 6.256 -0.656 9.03 -1.844 c -15.836 -1.206 -22.14 -7.53 -22.5 -18.656 c 1.324 -13.847 15.13 -14.543 15.5 -14.438 l 0 -3.25 c -0.412 -0.038 -0.869 -0.075 -1.313 -0.063 z m 1.594 4.281 c -0.359 -0.004 -0.734 0.008 -1.094 0.031 c -0.961 0.066 -1.922 0.211 -2.875 0.469 c -3.746 1.01 -6.823 3.375 -8.688 6.625 c -3.914 6.832 -1.841 15.188 4.938 19.844 c 3.621 2.01 9.595 3.539 17.16 3.75 c 1.287 -0.766 2.485 -1.631 3.594 -2.625 c -11.01 0.029 -14.474 -0.764 -18.875 -3.781 c -5.352 -3.672 -7.05 -10.234 -4 -15.563 c 1.434 -2.492 3.848 -4.316 6.75 -5.094 c 2.977 -0.805 6.04 -0.383 8.656 1.125 l 1.625 -2.813 c -2.215 -1.273 -4.676 -1.949 -7.188 -1.969 z m -0.313 4.406 c -1.648 0.055 -3.313 0.5 -4.781 1.344 c -3.25 1.875 -5.03 5.273 -5.03 8.781 c 0 1.625 0.363 3.293 1.188 4.813 c 0 0.004 0.05 0.074 0.063 0.094 c 0 0 -0.016 0.038 0 0.063 c 0.023 0.039 0.09 0.082 0.094 0.094 c 0.516 0.875 2.5 3.862 6.813 5.438 c 4.717 1.262 11.378 1.476 16.719 1.344 c 0.679 -0.752 1.299 -1.538 1.875 -2.375 c -6.05 0.029 -13.625 -0.136 -17.531 -2.031 c -3.395 -1.234 -4.801 -3.504 -5.063 -3.969 c -0.621 -1.082 -0.906 -2.305 -0.906 -3.469 c 0 -2.379 1.227 -4.691 3.438 -5.969 c 1.594 -0.914 3.438 -1.16 5.219 -0.688 c 1.77 0.48 3.265 1.625 4.188 3.219 l 2.906 -1.5 l -0.094 -0.094 c -1.355 -2.344 -3.508 -4.04 -6.125 -4.75 c -0.98 -0.262 -1.98 -0.375 -2.969 -0.344 z" fill="#f9f9f9" fill-rule="nonzero" stroke="none" fill-opacity="1"/><g><path d="m 40.03 7.531 c 3.712 4.084 5.969 9.514 5.969 15.469 0 12.703 -10.297 23 -23 23 c -5.954 0 -11.384 -2.256 -15.469 -5.969 4.178 4.291 10.01 6.969 16.469 6.969 c 12.703 0 23 -10.298 23 -23 0 -6.462 -2.677 -12.291 -6.969 -16.469 z" opacity="0.1"/></g></svg>
